_inc/images/systems/logos/cave.svg

<svg viewBox="0 0 3839.5 1084.6" xmlns="http://www.w3.org/2000/svg">
    <path class="st2" d="M933.6 502.7c-3.6-43.5 14.5-83.4 47.2-108.8l61.7-50.8c29-25.4 68.9-36.3 105.2-32.6h130.6c29 0 58 7.3 58 39.9s-32.6 39.9-58 39.9h-145.1c-18.1 0-32.6 7.3-47.2 21.8l-50.8 43.5c-14.5 10.9-21.8 18.1-21.8 36.3v101.6c0 14.5 10.9 29 21.8 36.3l50.8 39.9c14.5 10.9 29 18.1 47.2 21.8h145.1c25.4 0 58 3.6 58 39.9s-29 39.9-58 39.9h-130.6c-39.9 3.6-76.2-7.3-105.2-32.6l-61.7-50.8c-36.3-25.4-54.4-65.3-47.2-108.8v-76.4Zm964.8-108.8c-25.4 0-54.4-3.6-54.4-39.9s29-39.9 54.4-39.9h112.4c39.9-3.6 76.2 7.3 105.2 36.3 25.4 25.4 39.9 61.7 36.3 97.9l7.3 275.7c0 25.4-10.9 47.2-36.3 47.2-21.8 0-39.9-18.1-43.5-39.9l-54.4 29c-14.5 10.9-32.6 14.5-50.8 10.9h-79.8c-32.6 3.6-65.3-7.3-94.3-29-29-25.4-47.2-61.7-43.5-101.6v-36.3c-3.6-36.3 10.9-68.9 39.9-90.7 25.4-21.8 61.7-32.6 94.3-29h174.1v-18.1c0-61.7-14.5-72.5-72.5-72.5h-94.4Zm-3.6 174.1c-21.8 0-54.4 7.3-54.4 36.3v54.4c0 29 32.6 32.6 54.4 32.6h90.7l90.7-47.2V626c0-43.5-14.5-58-58-58h-123.4Zm1030.1-152.3v-39.9c0-29 3.6-61.7 39.9-61.7 29 0 39.9 21.8 39.9 50.8v58c0 10.9-3.6 21.8-10.9 32.6L2870.5 724c-7.3 18.1-21.8 50.8-43.5 50.8h-50.8c-21.8 0-36.3-32.6-43.5-50.8l-123.3-268.4c-7.3-10.9-10.9-21.8-10.9-32.6v-58c0-25.4 10.9-50.8 39.9-50.8 36.3 0 43.5 32.6 43.5 61.7v39.9l119.7 272 123.3-272.1Zm660.2 355.4c-25.4 3.6-54.4-3.6-72.5-21.8l-36.3-29c-29-21.8-43.5-54.4-39.9-90.7v-156c-3.6-36.3 10.9-72.5 39.9-97.9l29-25.4c21.8-25.4 58-36.3 90.7-32.6h76.2c32.6-3.6 65.3 7.3 90.7 29l32.6 25.4c32.6 25.4 47.2 65.3 43.5 105.2v65.3c0 47.2-7.3 61.7-54.4 61.7h-261.2v29c0 7.3 3.6 18.1 10.9 25.4l21.8 21.8c14.5 10.9 36.3 18.1 54.4 14.5h174.1c29 0 54.4 7.3 54.4 39.9 0 36.3-32.6 39.9-54.4 39.9l-199.5-3.7Zm-69-250.2h235.8v-50.8c0-14.5 0-29-10.9-36.3l-32.6-29c-10.9-7.3-25.4-10.9-39.9-10.9h-68.9c-14.5 0-29 0-39.9 10.9l-29 21.8c-10.9 7.3-18.1 21.8-18.1 36.3l3.5 58ZM782.1 688C766 647.6 732 616.9 690 605.6c1.6 0-59.8-21-88.9-30.7-25.9-11.3-54.9-14.5-82.4-11.3-45.2 6.5-84 33.9-105 74.3l-6.5-216.5 14.5-4.8c4.8 3.2 9.7 8.1 14.5 9.7 3.2 1.6 8.1 4.8 12.9 6.5l100.2 46.9c25.9 11.3 54.9 14.5 82.4 8.1C759.5 445.6 753 330.9 753 329.3c0-1.6-8.1-97-9.7-147.1v-1.6c-4.8-25.9-21-50.1-42-66.3l-98.6-92.1c-1.6 0-1.6-1.6-3.2-1.6-6.5-4.8-11.3-8.1-19.4-11.3C557.5-2 530-3.6 505.8 7.7c0 0-342.6 185.8-373.3 202-22.6 16.2-37.2 40.4-38.8 67.9-6.5 43.6-9.7 53.3-25.9 66.3-29.1 11.3-48.5 38.8-50.1 71.1L0 776.9c0 22.6 9.7 67.9 54.9 76 6.5 0 11.3 3.2 14.5 8.1 6.5 12.9 8.1 27.5 3.2 42v3.2c0 6.5 0 54.9 24.2 76 4.8 8.1 38.8 76 88.9 80.8l40.4 3.2c53.3 4.8 143.8 14.5 179.4 17.8 11.3 1.6 22.6 0 32.3-3.2 17.8-1.6 72.7-8.1 108.3-12.9 90.5-14.5 111.5-114.7 116.4-150.3 30.7-6.5 58.2-24.2 79.2-50.1l1.6-1.6c56.6-79.3 53.4-140.7 38.8-177.9Zm-433 118c-11.3 0-88.9 6.5-124.4 6.5-4.8 0-9.7-1.6-12.9-4.8-8.1-9.7-11.3-21-11.3-33.9l1.6-407.2c0-1.6-1.6-42 21-53.3 32.3-14.5 108.3-53.3 119.6-59.8 9.7-3.2 19.4-3.2 29.1 1.6 1.6 1.6 3.2 3.2 3.2 6.5l6.5 30.7c0 6.5 1.6 12.9 4.8 17.8-3.2-1.6-6.5 0-9.7 0l-103.4 42c-1.6 0-1.6 1.6-3.2 1.6l-3.2 3.2s-1.6 1.6-1.6 3.2v6.4l1.6 395.9c0 4.8 1.6 8.1 4.8 11.3 3.2 3.2 6.5 3.2 11.3 3.2l111.5-11.3c-4.9 25.9-38.9 37.2-45.3 40.4Zm42-408.8-74.3-29.1 54.9-22.6c6.5 17.8 14.5 35.6 25.9 50.1l-6.5 1.6Zm-95.4 349-1.6-358.7 82.4 33.9 9.7 315.1-90.5 9.7Zm416.9-559.1c3.2 50.1 9.7 145.4 9.7 145.4 0 3.2 3.2 93.7-101.8 129.3-21 3.2-42 0-61.4-6.5 0 0-22.6-9.7-45.2-21 139-46.9 132.5-172.9 132.5-174.5 0-1.6-8.1-103.4-11.3-160l43.6 40.4c17.8 9.7 29.1 27.5 33.9 46.9ZM567.2 36.8c22.6 11.3 37.2 32.3 40.4 56.6 3.2 56.6 11.3 164.8 11.3 166.4 0 4.8 4.8 106.7-114.7 145.4-14.5 4.8-29.1 6.5-43.6 1.6-3.2-1.6-4.8-3.2-4.8-3.2s-1.6 0-1.6-1.6h-1.6c-29.1-16.2-43.6-53.3-50.1-72.7 17.8 16.2 42 21 64.6 12.9 56.6-14.5 72.7-69.5 72.7-97v-1.6c0-1.6-9.7-130.9-11.3-169.7v-3.2c-3.2-11.3-9.7-22.6-19.4-30.7l12.9-6.5c12.9-4.8 30.7-4.8 45.2 3.3ZM61.4 827c-32.3-4.8-30.7-43.6-30.7-45.2l17.8-363.6c0-21 12.9-38.8 32.3-45.2 1.6 0 3.2-1.6 4.8-1.6 27.5-21 32.3-42 38.8-87.3 1.6-17.8 9.7-35.6 24.2-46.9 103.5-56.6 303.9-166.5 312-169.7 8.1-4.8 17.8-6.5 27.5-3.2 4.8 3.2 9.7 8.1 9.7 14.5 1.6 40.4 9.7 155.1 11.3 168.1 0 6.5-4.8 56.6-51.7 67.9-11.3 4.8-22.6 3.2-32.3-1.6-8.1-6.5-12.9-14.5-12.9-24.2v-1.6L404 255c-1.6-11.3-8.1-19.4-17.8-25.9-16.2-8.1-35.6-9.7-53.3-3.2-1.6 0-1.6 0-3.2 1.6-1.6 0-85.6 43.6-119.6 59.8-40.4 19.4-37.2 77.6-37.2 80.8 0-1.6-1.6 405.6-1.6 405.6 0 19.4 6.5 40.4 19.4 54.9 9.7 8.1 21 12.9 33.9 12.9 38.8-1.6 124.4-6.5 127.7-6.5h3.2c3.2-1.6 63-17.8 67.9-67.9 3.2-27.5 6.5-56.6 6.5-56.6 0-1.6 9.7-46.9 50.1-54.9 12.9-3.2 25.9-1.6 37.2 4.8 9.7 8.1 17.8 19.4 19.4 32.3 0 1.6 11.3 51.7-11.3 80.8-16.2 16.2-37.2 25.9-59.8 29.1h-1.6c-1.6 0-50.1 9.7-59.8 84-3.2 21-3.2 30.7-3.2 37.2 0 9.7-3.2 19.4-6.5 29.1-4.8 16.2-30.7 27.5-53.3 27.5-25.9 0-179.4-8.1-216.5-11.3-14.5-1.6-19.4-35.6-19.4-53.3 4.8-21 1.6-43.6-8.1-63-8.2-16.1-21.1-24.2-35.7-25.8Zm347.4 229.5c-33.9-3.2-124.4-11.3-177.8-17.8l-40.4-3.2c-19.4-1.6-37.2-21-50.1-40.4 53.3 3.2 177.8 11.3 202 11.3 33.9-1.6 72.7-17.8 80.8-48.5 3.2-11.3 6.5-22.6 6.5-33.9 0-6.5 1.6-16.2 3.2-35.6 6.5-48.5 30.7-56.6 35.6-58.2 30.7-3.2 58.2-16.2 79.2-38.8 0 0 0-1.6 1.6-1.6 30.7-38.8 17.8-100.2 16.2-103.4-3.2-21-14.5-38.8-32.3-50.1-17.8-11.3-40.4-14.5-61.4-9.7-8.1 1.6-16.2 4.8-22.6 8.1 17.8-22.6 43.6-37.2 71.1-40.4 17.8-1.6 33.9-1.6 51.7 3.2 1.6 0 1.6 1.6 3.2 1.6l14.5 4.8c21 9.7 38.8 25.9 51.7 45.2 19.4 29.1 40.4 93.7-29.1 195.5-38.8 43.6-72.7 45.2-77.6 45.2h-3.2c-6.5 1.6-9.7 4.8-11.3 11.3v3.2c-1.6 17.8-12.9 97-56.6 134.1-8.1 8.1-19.4 14.5-30.7 16.2h-3.2c-1.6 0-3.2 0-4.8 1.6-4.8.3-9.7.3-16.2.3Zm134.2-16.2c-14.5 1.6-30.7 4.8-48.5 6.5 29.1-37.2 46.9-82.4 51.7-129.3l85.6 1.6c-1.6 34-19.3 111.5-88.8 121.2Zm177.7-189c-35.6 40.4-67.9 40.4-69.5 40.4l-43.6-1.6c11.3-8.1 21-17.8 30.7-29.1 0 0 0-1.6 1.6-1.6C717.5 744.6 691.6 667 669 631.5c-1.6-1.6-1.6-3.2-3.2-4.8l16.2 4.8c33.9 8.1 61.4 32.3 72.7 64.6 11.3 32.3 14.5 84.1-34 155.2Z" style="fill:#fff"/>
</svg>

<?xml version="1.0" encoding="utf-8"?>
<svg version="1.1" viewBox="0 0 3839.5 1084.6" xmlns="http://www.w3.org/2000/svg">
  <path id="パス_1_9_" class="st2" d="M 933.6 502.7 C 930 459.2 948.1 419.3 980.8 393.9 L 1042.5 343.1 C 1071.5 317.7 1111.4 306.8 1147.7 310.5 L 1278.3 310.5 C 1307.3 310.5 1336.3 317.8 1336.3 350.4 C 1336.3 383 1303.7 390.3 1278.3 390.3 L 1133.2 390.3 C 1115.1 390.3 1100.6 397.6 1086 412.1 L 1035.2 455.6 C 1020.7 466.5 1013.4 473.7 1013.4 491.9 L 1013.4 593.5 C 1013.4 608 1024.3 622.5 1035.2 629.8 L 1086 669.7 C 1100.5 680.6 1115 687.8 1133.2 691.5 L 1278.3 691.5 C 1303.7 691.5 1336.3 695.1 1336.3 731.4 C 1336.3 767.7 1307.3 771.3 1278.3 771.3 L 1147.7 771.3 C 1107.8 774.9 1071.5 764 1042.5 738.7 L 980.8 687.9 C 944.5 662.5 926.4 622.6 933.6 579.1 L 933.6 502.7 Z" style="fill: rgb(255, 255, 255);"/>
  <path id="パス_2_9_" class="st2" d="M 1898.4 393.9 C 1873 393.9 1844 390.3 1844 354 C 1844 317.7 1873 314.1 1898.4 314.1 L 2010.8 314.1 C 2050.7 310.5 2087 321.4 2116 350.4 C 2141.4 375.8 2155.9 412.1 2152.3 448.3 L 2159.6 724 C 2159.6 749.4 2148.7 771.2 2123.3 771.2 C 2101.5 771.2 2083.4 753.1 2079.8 731.3 L 2025.4 760.3 C 2010.9 771.2 1992.8 774.8 1974.6 771.2 L 1894.8 771.2 C 1862.2 774.8 1829.5 763.9 1800.5 742.2 C 1771.5 716.8 1753.3 680.5 1757 640.6 L 1757 604.3 C 1753.4 568 1767.9 535.4 1796.9 513.6 C 1822.3 491.8 1858.6 481 1891.2 484.6 L 2065.3 484.6 L 2065.3 466.5 C 2065.3 404.8 2050.8 394 1992.8 394 L 1898.4 394 Z M 1894.8 568 C 1873 568 1840.4 575.3 1840.4 604.3 L 1840.4 658.7 C 1840.4 687.7 1873 691.3 1894.8 691.3 L 1985.5 691.3 L 2076.2 644.1 L 2076.2 626 C 2076.2 582.5 2061.7 568 2018.2 568 L 1894.8 568 Z" style="fill: rgb(255, 255, 255);"/>
  <path id="パス_3_9_" class="st2" d="M 2924.9 415.7 L 2924.9 375.8 C 2924.9 346.8 2928.5 314.1 2964.8 314.1 C 2993.8 314.1 3004.7 335.9 3004.7 364.9 L 3004.7 422.9 C 3004.7 433.8 3001.1 444.7 2993.8 455.5 L 2870.5 724 C 2863.2 742.1 2848.7 774.8 2827 774.8 L 2776.2 774.8 C 2754.4 774.8 2739.9 742.2 2732.7 724 L 2609.4 455.6 C 2602.1 444.7 2598.5 433.8 2598.5 423 L 2598.5 365 C 2598.5 339.6 2609.4 314.2 2638.4 314.2 C 2674.7 314.2 2681.9 346.8 2681.9 375.9 L 2681.9 415.8 L 2801.6 687.8 L 2924.9 415.7 Z" style="fill: rgb(255, 255, 255);"/>
  <path id="パス_4_9_" class="st2" d="M 3585.1 771.1 C 3559.7 774.7 3530.7 767.5 3512.6 749.3 L 3476.3 720.3 C 3447.3 698.5 3432.8 665.9 3436.4 629.6 L 3436.4 473.6 C 3432.8 437.3 3447.3 401.1 3476.3 375.7 L 3505.3 350.3 C 3527.1 324.9 3563.3 314 3596 317.7 L 3672.2 317.7 C 3704.8 314.1 3737.5 325 3762.9 346.7 L 3795.5 372.1 C 3828.1 397.5 3842.7 437.4 3839 477.3 L 3839 542.6 C 3839 589.8 3831.7 604.3 3784.6 604.3 L 3523.4 604.3 L 3523.4 633.3 C 3523.4 640.6 3527 651.4 3534.3 658.7 L 3556.1 680.5 C 3570.6 691.4 3592.4 698.6 3610.5 695 L 3784.6 695 C 3813.6 695 3839 702.3 3839 734.9 C 3839 771.2 3806.4 774.8 3784.6 774.8 L 3585.1 771.1 Z M 3516.1 520.9 L 3751.9 520.9 L 3751.9 470.1 C 3751.9 455.6 3751.9 441.1 3741 433.8 L 3708.4 404.8 C 3697.5 397.5 3683 393.9 3668.5 393.9 L 3599.6 393.9 C 3585.1 393.9 3570.6 393.9 3559.7 404.8 L 3530.7 426.6 C 3519.8 433.9 3512.6 448.4 3512.6 462.9 L 3516.1 520.9 Z" style="fill: rgb(255, 255, 255);"/>
  <path id="パス_5_9_" class="st2" d="M 782.1 688 C 766 647.6 732 616.9 690 605.6 C 691.6 605.6 630.2 584.6 601.1 574.9 C 575.2 563.6 546.2 560.4 518.7 563.6 C 473.5 570.1 434.7 597.5 413.7 637.9 L 407.2 421.4 L 421.7 416.6 C 426.5 419.8 431.4 424.7 436.2 426.3 C 439.4 427.9 444.3 431.1 449.1 432.8 L 549.3 479.7 C 575.2 491 604.2 494.2 631.7 487.8 C 759.5 445.6 753 330.9 753 329.3 C 753 327.7 744.9 232.3 743.3 182.2 L 743.3 180.6 C 738.5 154.7 722.3 130.5 701.3 114.3 L 602.7 22.2 C 601.1 22.2 601.1 20.6 599.5 20.6 C 593 15.8 588.2 12.5 580.1 9.3 C 557.5 -2 530 -3.6 505.8 7.7 C 505.8 7.7 163.2 193.5 132.5 209.7 C 109.9 225.9 95.3 250.1 93.7 277.6 C 87.2 321.2 84 330.9 67.8 343.9 C 38.7 355.2 19.3 382.7 17.7 415 L 0 776.9 C 0 799.5 9.7 844.8 54.9 852.9 C 61.4 852.9 66.2 856.1 69.4 861 C 75.9 873.9 77.5 888.5 72.6 903 C 72.6 904.6 72.6 904.6 72.6 906.2 C 72.6 912.7 72.6 961.1 96.8 982.2 C 101.6 990.3 135.6 1058.2 185.7 1063 L 226.1 1066.2 C 279.4 1071 369.9 1080.7 405.5 1084 C 416.8 1085.6 428.1 1084 437.8 1080.8 C 455.6 1079.2 510.5 1072.7 546.1 1067.9 C 636.6 1053.4 657.6 953.2 662.5 917.6 C 693.2 911.1 720.7 893.4 741.7 867.5 L 743.3 865.9 C 799.9 786.6 796.7 725.2 782.1 688 Z M 349.1 806 C 337.8 806 260.2 812.5 224.7 812.5 C 219.9 812.5 215 810.9 211.8 807.7 C 203.7 798 200.5 786.7 200.5 773.8 L 202.1 366.6 C 202.1 365 200.5 324.6 223.1 313.3 C 255.4 298.8 331.4 260 342.7 253.5 C 352.4 250.3 362.1 250.3 371.8 255.1 C 373.4 256.7 375 258.3 375 261.6 L 381.5 292.3 C 381.5 298.8 383.1 305.2 386.3 310.1 C 383.1 308.5 379.8 310.1 376.6 310.1 L 273.2 352.1 L 273.2 352.1 C 271.6 352.1 271.6 353.7 270 353.7 L 270 353.7 C 268.4 355.3 268.4 355.3 266.8 356.9 L 266.8 356.9 C 266.8 356.9 265.2 358.5 265.2 360.1 L 265.2 361.7 C 265.2 361.7 265.2 361.7 265.2 363.3 C 265.2 364.9 265.2 364.9 265.2 366.5 L 265.2 366.5 L 265.2 366.5 L 265.2 366.5 L 265.2 366.5 L 266.8 762.4 C 266.8 767.2 268.4 770.5 271.6 773.7 C 274.8 776.9 278.1 776.9 282.9 776.9 L 394.4 765.6 C 389.5 791.5 355.5 802.8 349.1 806 L 349.1 806 Z M 391.1 397.2 L 316.8 368.1 L 371.7 345.5 C 378.2 363.3 386.2 381.1 397.6 395.6 L 391.1 397.2 Z M 295.7 746.2 L 294.1 387.5 L 376.5 421.4 L 386.2 736.5 L 295.7 746.2 Z M 712.6 187.1 C 715.8 237.2 722.3 332.5 722.3 332.5 C 722.3 335.7 725.5 426.2 620.5 461.8 C 599.5 465 578.5 461.8 559.1 455.3 C 559.1 455.3 536.5 445.6 513.9 434.3 C 652.9 387.4 646.4 261.4 646.4 259.8 C 646.4 258.2 638.3 156.4 635.1 99.8 L 678.7 140.2 C 696.5 149.9 707.8 167.7 712.6 187.1 Z M 567.2 36.8 C 589.8 48.1 604.4 69.1 607.6 93.4 C 610.8 150 618.9 258.2 618.9 259.8 C 618.9 264.6 623.7 366.5 504.2 405.2 C 489.7 410 475.1 411.7 460.6 406.8 C 457.4 405.2 455.8 403.6 455.8 403.6 C 455.8 403.6 454.2 403.6 454.2 402 L 452.6 402 C 423.5 385.8 409 348.7 402.5 329.3 C 420.3 345.5 444.5 350.3 467.1 342.2 C 523.7 327.7 539.8 272.7 539.8 245.2 L 539.8 243.6 C 539.8 242 530.1 112.7 528.5 73.9 C 528.5 72.3 528.5 72.3 528.5 70.7 C 525.3 59.4 518.8 48.1 509.1 40 L 522 33.5 C 534.9 28.7 552.7 28.7 567.2 36.8 L 567.2 36.8 Z M 61.4 827 C 29.1 822.2 30.7 783.4 30.7 781.8 L 48.5 418.2 C 48.5 397.2 61.4 379.4 80.8 373 C 82.4 373 84 371.4 85.6 371.4 C 113.1 350.4 117.9 329.4 124.4 284.1 C 126 266.3 134.1 248.5 148.6 237.2 C 252.1 180.6 452.5 70.7 460.6 67.5 C 468.7 62.7 478.4 61 488.1 64.3 C 492.9 67.5 497.8 72.4 497.8 78.8 C 499.4 119.2 507.5 233.9 509.1 246.9 C 509.1 253.4 504.3 303.5 457.4 314.8 C 446.1 319.6 434.8 318 425.1 313.2 C 417 306.7 412.2 298.7 412.2 289 L 412.2 287.4 L 404 255 C 402.4 243.7 395.9 235.6 386.2 229.1 C 370 221 350.6 219.4 332.9 225.9 C 331.3 225.9 331.3 225.9 329.7 227.5 C 328.1 227.5 244.1 271.1 210.1 287.3 C 169.7 306.7 172.9 364.9 172.9 368.1 C 172.9 366.5 171.3 773.7 171.3 773.7 C 171.3 793.1 177.8 814.1 190.7 828.6 C 200.4 836.7 211.7 841.5 224.6 841.5 C 263.4 839.9 349 835 352.3 835 C 353.9 835 353.9 835 355.5 835 C 358.7 833.4 418.5 817.2 423.4 767.1 C 426.6 739.6 429.9 710.5 429.9 710.5 C 429.9 708.9 439.6 663.6 480 655.6 C 492.9 652.4 505.9 654 517.2 660.4 C 526.9 668.5 535 679.8 536.6 692.7 C 536.6 694.3 547.9 744.4 525.3 773.5 C 509.1 789.7 488.1 799.4 465.5 802.6 C 463.9 802.6 463.9 802.6 463.9 802.6 C 462.3 802.6 413.8 812.3 404.1 886.6 C 400.9 907.6 400.9 917.3 400.9 923.8 C 400.9 933.5 397.7 943.2 394.4 952.9 C 389.6 969.1 363.7 980.4 341.1 980.4 C 315.2 980.4 161.7 972.3 124.6 969.1 C 110.1 967.5 105.2 933.5 105.2 915.8 C 110 894.8 106.8 872.2 97.1 852.8 C 88.9 836.7 76 828.6 61.4 827 Z M 408.8 1056.5 C 374.9 1053.3 284.4 1045.2 231 1038.7 L 190.6 1035.5 C 171.2 1033.9 153.4 1014.5 140.5 995.1 C 193.8 998.3 318.3 1006.4 342.5 1006.4 C 376.4 1004.8 415.2 988.6 423.3 957.9 C 426.5 946.6 429.8 935.3 429.8 924 C 429.8 917.5 431.4 907.8 433 888.4 C 439.5 839.9 463.7 831.8 468.6 830.2 C 499.3 827 526.8 814 547.8 791.4 C 547.8 791.4 547.8 789.8 549.4 789.8 C 580.1 751 567.2 689.6 565.6 686.4 C 562.4 665.4 551.1 647.6 533.3 636.3 C 515.5 625 492.9 621.8 471.9 626.6 C 463.8 628.2 455.7 631.4 449.3 634.7 C 467.1 612.1 492.9 597.5 520.4 594.3 C 538.2 592.7 554.3 592.7 572.1 597.5 C 573.7 597.5 573.7 599.1 575.3 599.1 L 589.8 603.9 C 610.8 613.6 628.6 629.8 641.5 649.1 C 660.9 678.2 681.9 742.8 612.4 844.6 C 573.6 888.2 539.7 889.8 534.8 889.8 L 533.2 889.8 C 531.6 889.8 531.6 889.8 531.6 889.8 L 531.6 889.8 C 525.1 891.4 521.9 894.6 520.3 901.1 L 520.3 901.1 L 520.3 902.7 C 520.3 902.7 520.3 902.7 520.3 904.3 C 518.7 922.1 507.4 1001.3 463.7 1038.4 C 455.6 1046.5 444.3 1052.9 433 1054.6 C 431.4 1054.6 429.8 1054.6 429.8 1054.6 C 428.2 1054.6 426.6 1054.6 425 1056.2 C 420.2 1056.5 415.3 1056.5 408.8 1056.5 Z M 543 1040.3 C 528.5 1041.9 512.3 1045.1 494.5 1046.8 C 523.6 1009.6 541.4 964.4 546.2 917.5 L 631.8 919.1 C 630.2 953.1 612.5 1030.6 543 1040.3 L 543 1040.3 Z M 720.7 851.3 C 685.1 891.7 652.8 891.7 651.2 891.7 L 651.2 891.7 L 651.2 891.7 L 607.6 890.1 C 618.9 882 628.6 872.3 638.3 861 C 638.3 861 638.3 859.4 639.9 859.4 C 717.5 744.6 691.6 667 669 631.5 C 667.4 629.9 667.4 628.3 665.8 626.7 L 682 631.5 C 715.9 639.6 743.4 663.8 754.7 696.1 C 766 728.4 769.2 780.2 720.7 851.3 L 720.7 851.3 Z" style="fill: rgb(255, 255, 255);"/>
</svg>
